icons/measure-building-height-top-shadow-16-f.svg

<svg id="icons" xmlns="http://www.w3.org/2000/svg" viewBox="0 0 16 16"><title>measure-building-height-top-shadow-16-f</title><path d="M10.10156,5.61426,9.03522,6.167l.412-2.46679,2.252,1.08587-1.06445.55084,3.22265,6.21485L14.92188,11l-.41016,2.46576-2.25391-1.0849,1.06537-.55176ZM16,15v1H0V15H1V0H8V15ZM4,12H3v1H4ZM4,9H3v1H4ZM4,6H3V7H4ZM4,3H3V4H4Zm2,9H5v1H6ZM6,9H5v1H6ZM6,6H5V7H6ZM6,3H5V4H6Z"/></svg>

<svg xmlns="http://www.w3.org/2000/svg" viewBox="0 0 16 16"><path d="M10.102 5.614l-1.067.553.412-2.467L11.7 4.786l-1.064.55 3.222 6.216L14.922 11l-.41 2.466-2.254-1.085 1.065-.552zM16 15v1H0v-1h1V0h7v15zM4 12H3v1h1zm0-3H3v1h1zm0-3H3v1h1zm0-3H3v1h1zm2 9H5v1h1zm0-3H5v1h1zm0-3H5v1h1zm0-3H5v1h1z"/></svg>
